X: 1
T: Lobster In The Shack, The
M: 6/8
L: 1/8
R: jig
K: Gmaj
|:DED G2A|Bed BAB|Ged efg|fdc AGF|
~D3 DGA|Bed ~B3|egf dcA|BGF G3:|
~e3 gfe|dga bgf|egg dcB|ADD ABd|
~e3 gfe|dga bgd|cgf dcA|BGF GBd|
~e3 gfe|dga ~b3|age ged|eaa aga|
bgb agf|egg dcB|cgf dcA|BGF G3||
